X: 146
T: Little Judique
C:
B: NEFR #146
R: reel
Z: 2012 John Chambers <jc:trillian.mit.edu>
M: C|
L: 1/8
K: D
|:"D"a^g ab a2 f2 | d2 A2 A2 fg | "D"a^g ab a2 f2 | d6 fg |
| "A7"gf ga g2 e2 | c2 A2 c2 ef | gf ga g2 e2 | c4 f3 g ||
| "D"a^g ab a2 f2 | d2 A2 A2 fg | "D"a^g ab a2 f2 | d4 g3 a |
"G"b2 gb "D"a2 fa | "A7"g2 eg "D"f2 ed | "A7"c2 Ac a2 c2 | "D"d4 "(E7)"c3 d |]
K: A
|: "A"e4 e3 f | e2 c2 B2 A2 | "D"ag ab a2 f2 | "A"e4 f3 g |
|  "D"a3 b a2 f2 | "A"e2 c2 "D"a2 f2 |\
[1 "A"e2 c2 B2 A2 | "E7"B4 B2 cd :|\
[2 "E7"e2 c2 B2 c2 | "A"A4 f3 =g |]
